www/assets/icons/file_download.svg

<svg width="24" height="24" viewBox="0 0 24 24" xmlns="http://www.w3.org/2000/svg" fill='currentColor'><path d="M19 9.5H15V3.5H9V9.5H5L12 16.5L19 9.5ZM5 18.5V20.5H19V18.5H5Z"/></svg>

<svg xmlns="http://www.w3.org/2000/svg" width="24" height="24" viewBox="0 0 24 24" fill='currentColor'><path d="M19 9.5h-4v-6H9v6H5l7 7zm-14 9v2h14v-2z"/></svg>
